src/images/projects/default.svg

<svg xmlns="http://www.w3.org/2000/svg" xml:space="preserve" style="enable-background:new 0 0 490 490" viewBox="0 0 490 490"><path d="M0 439.576h490V50.424H0v389.152zM30.625 81.049h428.75v327.902H30.625V81.049z"/><path d="m213.627 266.395-36.11-41.73L65.66 353.933h358.68L281.107 188.42l-67.48 77.975zm-42.265 56.913h-38.71l44.85-51.848 44.881 51.848h-51.021zm91.513 0-29-33.513 47.231-54.579 76.241 88.093h-94.472zM211.481 208.235c21.713 0 39.368-17.625 39.368-39.261 0-21.667-17.655-39.277-39.368-39.277s-39.368 17.609-39.368 39.277c0 21.651 17.655 39.261 39.368 39.261zm0-47.928c4.823 0 8.743 3.889 8.743 8.652 0 4.762-3.92 8.636-8.743 8.636-4.824 0-8.743-3.874-8.743-8.636 0-4.763 3.92-8.652 8.743-8.652z"/></svg>

<?xml version="1.0" encoding="iso-8859-1"?>
<!-- Generator: Adobe Illustrator 19.0.0, SVG Export Plug-In . SVG Version: 6.00 Build 0)  -->
<svg version="1.1" id="Capa_1" xmlns="http://www.w3.org/2000/svg" xmlns:xlink="http://www.w3.org/1999/xlink" x="0px" y="0px"
	 viewBox="0 0 490 490" style="enable-background:new 0 0 490 490;" xml:space="preserve">
<g>
	<path d="M0,439.576h490V50.424H0V439.576z M30.625,81.049h428.75v327.902H30.625V81.049z"/>
	<path d="M213.627,266.395l-36.11-41.73L65.66,353.933h105.702h118.014H424.34L281.107,188.42L213.627,266.395z M171.362,323.308
		h-38.71l44.85-51.848l44.881,51.848H171.362z M262.875,323.308l-29-33.513l47.231-54.579l76.241,88.093H262.875z"/>
	<path d="M211.481,208.235c21.713,0,39.368-17.625,39.368-39.261c0-21.667-17.655-39.277-39.368-39.277
		c-21.713,0-39.368,17.609-39.368,39.277C172.113,190.625,189.768,208.235,211.481,208.235z M211.481,160.307
		c4.823,0,8.743,3.889,8.743,8.652c0,4.762-3.92,8.636-8.743,8.636c-4.824,0-8.743-3.874-8.743-8.636
		C202.738,164.196,206.658,160.307,211.481,160.307z"/>
</g>
<g>
</g>
<g>
</g>
<g>
</g>
<g>
</g>
<g>
</g>
<g>
</g>
<g>
</g>
<g>
</g>
<g>
</g>
<g>
</g>
<g>
</g>
<g>
</g>
<g>
</g>
<g>
</g>
<g>
</g>
</svg>
